src/assets/images/big-bear.svg

<svg width="111" height="110" viewBox="0 0 111 110" fill="none" xmlns="http://www.w3.org/2000/svg">
<path opacity="0.903" fill-rule="evenodd" clip-rule="evenodd" d="M38.1088 0.0576324C41.6653 -0.316477 44.1177 1.13075 45.4655 4.39932C45.658 5.21773 45.8992 6.02167 46.1891 6.81138C50.0388 4.64873 54.099 4.12628 58.37 5.24354C59.0864 5.42758 59.6894 5.78939 60.179 6.32897C61.7203 3.32741 64.1734 2.16166 67.5358 2.83149C69.9261 3.53267 71.412 5.10051 71.9981 7.53499C72.9147 11.4071 71.6676 14.3015 68.2594 16.2184C69.1398 18.8588 69.984 21.5121 70.7921 24.1781C73.069 27.309 73.7131 30.7664 72.7217 34.55C71.9836 36.3139 71.1804 38.0023 70.3097 39.6153C75.2061 45.3178 80.1122 51.0262 85.0232 56.7408C85.04 55.1744 85.2813 53.6469 85.7468 52.1579C86.8877 50.3023 88.5351 49.619 90.6915 50.1077C92.7345 50.8653 94.1431 52.2723 94.9126 54.3288C96.6927 51.869 98.9841 51.266 101.787 52.5197C103.596 55.1064 103.676 57.7597 102.028 60.4795C105.485 60.6346 106.811 62.3633 106.008 65.6654C105.617 66.4959 105.096 67.2195 104.44 67.8363C110.412 75.6122 111.821 84.1347 108.661 93.404C105.704 99.8485 100.68 102.622 93.5859 101.726C90.6722 101.274 88.1009 100.108 85.8674 98.2281C85.0859 99.7998 84.3213 101.408 83.5759 103.052C80.8527 107.57 76.8728 109.54 71.6363 108.962C69.3883 108.301 67.6588 106.974 66.4504 104.982C65.1189 102.15 64.5979 99.1753 64.8825 96.0573C62.1883 95.5146 59.494 94.9516 56.8022 94.3688C51.6862 99.0801 46.1788 103.301 40.2796 107.032C39.1539 107.595 38.0284 108.158 36.9027 108.721C36.2693 108.961 35.626 109.041 34.9731 108.962C27.5481 106.602 22.3622 101.818 19.4154 94.61C17.1989 84.6857 21.0983 80.7058 31.1138 82.6704C32.0425 83.0334 32.967 83.3952 33.8877 83.7558C35.134 82.2283 36.3801 80.7005 37.6264 79.1729C36.7645 77.0747 36.1615 74.9038 35.8173 72.6604C34.5129 73.4539 33.1059 73.9363 31.5962 74.1076C31.8437 76.7546 30.6377 78.1215 27.9782 78.2081C27.0551 78.182 26.1708 77.9809 25.3249 77.6051C17.1837 66.3263 8.94273 55.1103 0.601372 43.957C-0.238746 42.9796 -0.198706 42.0551 0.721974 41.1831C1.68679 40.5398 2.65162 39.8968 3.61644 39.2535C4.4978 38.7373 5.34202 38.7776 6.14909 39.3741C7.82522 41.7743 9.59422 44.1058 11.4556 46.369C10.7211 44.0904 9.83687 41.8392 8.80235 39.6153C8.43451 38.8386 8.27362 38.0347 8.31994 37.2032C8.41015 36.9823 8.53075 36.7811 8.68174 36.6002C10.2631 35.8496 11.8712 35.1662 13.5058 34.55C13.8527 34.6028 14.1742 34.7234 14.4707 34.9118C18.3538 43.3612 22.3337 51.7633 26.4103 60.1177C26.9653 59.788 27.5683 59.6271 28.2194 59.6353C28.606 53.7279 30.8574 48.6626 34.9731 44.4394C29.2011 40.8326 27.3117 35.7673 29.3048 29.2435C30.5352 26.4447 32.4245 24.1936 34.9731 22.4897C35.0918 20.0063 35.6545 17.6345 36.6615 15.3742C34.4504 14.4484 33.1238 12.8003 32.6817 10.4295C32.1421 7.71734 32.5439 5.14441 33.8877 2.71089C35.0322 1.357 36.4391 0.472746 38.1088 0.0576324ZM72.8423 68.0775C73.8385 68.953 74.8033 69.8776 75.7368 70.8513C76.4628 71.2141 77.1864 71.5759 77.9076 71.9368C76.9549 74.8522 76.593 77.827 76.8222 80.8613C74.0122 80.3013 72.0825 78.6932 71.0333 76.0372C70.8717 75.7157 70.8717 75.394 71.0333 75.0724C72.1549 72.8709 72.7579 70.5395 72.8423 68.0775Z" fill="#040202"/>
<path fill-rule="evenodd" clip-rule="evenodd" d="M46.7921 45.4042C45.6418 45.0691 44.4358 44.9082 43.174 44.9217C38.3314 44.2114 34.5124 41.8799 31.7168 37.9268C29.9823 34.218 30.3841 30.7606 32.9228 27.555C33.8474 26.6304 34.7721 25.7057 35.6967 24.7811C36.3489 24.3359 37.0725 24.0544 37.8675 23.9369C37.9478 23.736 38.0284 23.5348 38.1087 23.3339C36.9997 20.7231 37.3212 18.2708 39.0736 15.9771C39.556 15.7762 40.0384 15.575 40.5208 15.3741C41.2012 14.7188 41.1207 14.156 40.2796 13.6857C36.5559 13.5796 34.7065 11.6499 34.7319 7.89676C34.6564 5.56045 35.6212 3.79145 37.6263 2.59025C40.8274 1.88135 42.8776 3.12742 43.7771 6.32893C43.284 10.1897 44.5303 10.9536 47.5157 8.62038C51.1176 6.55615 54.817 6.31494 58.6112 7.89676C59.424 8.46721 59.9474 9.23111 60.179 10.1882C60.741 10.5097 61.3054 10.5097 61.8674 10.1882C61.7131 6.49199 63.4401 4.76327 67.0533 5.0023C69.6029 6.28865 70.5267 8.33889 69.8272 11.153C69.2797 12.7464 68.1942 13.7515 66.5709 14.1681C66.0668 14.4708 65.8256 14.9129 65.8473 15.4947C66.8146 18.8009 67.8204 22.0972 68.8624 25.3841C71.4264 28.9525 71.588 32.6512 69.3448 36.4796C66.4841 40.1394 62.8274 42.672 58.37 44.0775C54.5975 45.2529 50.7382 45.695 46.7921 45.4042Z" fill="#D39356"/>
<path fill-rule="evenodd" clip-rule="evenodd" d="M38.3499 6.32889C39.1755 6.23916 39.7785 6.56069 40.1589 7.29371C40.5468 8.08294 41.0292 8.80655 41.6062 9.46456C41.968 10.7109 41.5258 11.153 40.2795 10.7912C39.5663 9.80707 38.883 8.80197 38.2293 7.77612C38.0658 7.27007 38.106 6.78766 38.3499 6.32889Z" fill="#0E0905"/>
<path fill-rule="evenodd" clip-rule="evenodd" d="M66.0885 7.29378C67.1739 7.21273 67.6154 7.69514 67.4152 8.74101C66.5203 9.9287 65.5941 11.0947 64.6413 12.2385C63.5559 12.4394 63.1145 11.9973 63.3147 10.9119C64.2071 9.66121 65.1309 8.45518 66.0885 7.29378Z" fill="#0F0A05"/>
<path fill-rule="evenodd" clip-rule="evenodd" d="M53.7871 22.9721C55.8108 22.9388 56.2112 23.7027 54.9932 25.2636C53.7051 25.5021 53.1021 24.9794 53.1841 23.6957C53.3525 23.4085 53.5534 23.1672 53.7871 22.9721Z" fill="#0C0804"/>
<path fill-rule="evenodd" clip-rule="evenodd" d="M43.6565 23.2134C45.1882 22.9782 45.7912 23.6215 45.4656 25.143C44.6616 26.1078 43.8574 26.1078 43.0535 25.143C42.8166 24.3531 43.0176 23.71 43.6565 23.2134Z" fill="#100A05"/>
<path fill-rule="evenodd" clip-rule="evenodd" d="M48.2393 27.555C49.2244 27.4447 50.1489 27.6056 51.0132 28.0374C51.3048 28.9462 51.0636 29.6699 50.2896 30.2082C50.2425 31.3945 50.1219 32.5602 49.9278 33.7057C49.4596 33.8849 49.0175 33.8446 48.6011 33.5851C48.5596 32.5308 48.439 31.4857 48.2393 30.4494C47.1353 30.1067 46.7735 29.3831 47.1539 28.2786C47.5524 28.0617 47.9142 27.8205 48.2393 27.555Z" fill="#070402"/>
<path fill-rule="evenodd" clip-rule="evenodd" d="M12.541 37.2031C12.7812 37.1824 12.9821 37.263 13.144 37.4443C16.7621 45.1629 20.3801 52.8815 23.9982 60.6C24.1591 60.9216 24.1591 61.2433 23.9982 61.5649C23.2746 62.2885 22.551 63.0121 21.8274 63.7357C18.169 55.2935 14.5109 46.8513 10.8525 38.4092C11.3801 37.9456 11.9428 37.5437 12.541 37.2031Z" fill="#9E9E9E"/>
<path fill-rule="evenodd" clip-rule="evenodd" d="M24.6013 84.7206C25.7984 84.5388 27.0044 84.4584 28.2193 84.4794C29.9876 84.7189 31.676 85.2416 33.2846 86.0472C33.9607 86.2294 34.604 86.149 35.2143 85.806C38.2812 82.1255 41.3766 78.4671 44.5007 74.8312C44.8625 73.5849 44.4204 73.1428 43.174 73.5046C41.9277 74.9115 40.6817 76.3187 39.4354 77.7257C38.1693 73.9658 37.4859 70.1065 37.3851 66.1478C37.3535 63.2411 37.5144 60.3466 37.8675 57.4644C38.0383 55.7854 38.4807 54.1775 39.1942 52.6403C39.4631 50.839 38.9001 50.5173 37.5057 51.6755C36.2295 54.6785 35.5059 57.8142 35.3349 61.0825C35.2722 64.0592 35.2722 67.034 35.3349 70.0071C32.2571 72.3482 28.9205 72.7904 25.3249 71.3337C22.1029 69.0457 21.8616 66.4727 24.6013 63.6152C26.0849 62.4316 27.7733 61.708 29.6666 61.4443C29.8675 61.2434 30.0687 61.0422 30.2696 60.8413C30.4244 54.7386 32.7964 49.7136 37.3851 45.766C40.3102 46.4472 43.285 47.0099 46.3097 47.4544C54.3804 47.9202 61.6576 45.7896 68.1388 41.0625C68.6067 41.289 69.0095 41.6108 69.3448 42.0273C74.5717 48.0574 79.7962 54.0876 85.0231 60.1177C85.2571 60.5741 85.4187 61.0565 85.5056 61.5649C86.5379 62.1778 87.6233 62.7005 88.7618 63.1328C90.607 64.7127 90.689 66.4011 89.003 68.1981C85.9783 70.2367 82.681 70.7997 79.1136 69.8865C78.4189 69.6559 77.7773 69.3344 77.184 68.9217C73.6455 65.3839 70.1094 61.8464 66.5709 58.3087C65.2781 57.6113 64.6751 57.9731 64.7619 59.3941C66.6119 61.2434 68.4596 63.0925 70.3096 64.9418C70.8596 67.1445 70.7776 69.3153 70.0684 71.4543C67.8252 76.7471 64.8512 81.5712 61.1438 85.9266C54.0543 94.5485 45.6122 101.463 35.8173 106.67C28.9169 104.514 24.0928 100.092 21.345 93.404C20.3462 90.8506 20.5874 88.4386 22.0686 86.1679C22.7727 85.4201 23.6169 84.9377 24.6013 84.7206Z" fill="#D39456"/>
<path fill-rule="evenodd" clip-rule="evenodd" d="M4.34011 41.5449C4.70602 41.5476 4.98751 41.7082 5.18433 42.0273C8.95099 47.1611 12.8103 52.2264 16.7622 57.2233C17.9865 60.0736 19.2729 62.8875 20.6215 65.6654C20.7823 66.1478 20.7823 66.6303 20.6215 67.1127C14.7522 59.1529 8.88273 51.1931 3.01349 43.2334C2.8526 42.9922 2.8526 42.7509 3.01349 42.5097C3.49951 42.221 3.94188 41.8995 4.34011 41.5449Z" fill="#9D9D9D"/>
<path fill-rule="evenodd" clip-rule="evenodd" d="M43.1741 44.9218C44.4358 44.9083 45.6418 45.0692 46.7921 45.4042C45.5258 45.452 44.3198 45.2911 43.1741 44.9218Z" fill="#A07041"/>
<path fill-rule="evenodd" clip-rule="evenodd" d="M88.7618 52.1579C90.1849 52.0457 91.2703 52.6085 92.0181 53.8463C93.0866 55.4458 93.569 57.2145 93.4653 59.1528C93.7692 60.0509 94.3312 60.2921 95.1537 59.8765C95.3877 57.8431 96.2319 56.1146 97.6864 54.6906C99.6691 53.5506 100.714 54.1134 100.822 56.379C100.723 58.8675 99.5581 60.6765 97.3246 61.8061C97.0665 62.6732 97.3873 63.1556 98.2894 63.2533C99.8283 62.796 101.396 62.6754 102.993 62.8915C104.107 63.2714 104.389 63.9548 103.837 64.9418C101.085 68.0159 97.8673 68.6592 94.1889 66.8714C93.3954 67.0253 93.1542 67.5077 93.4653 68.3186C94.4856 69.4718 95.7712 70.0346 97.3246 70.0071C99.0106 69.8132 100.658 69.5319 102.269 69.1629C108.418 76.3515 109.744 84.3515 106.249 93.1628C103.275 98.4493 98.8128 100.5 92.8623 99.3135C90.2862 98.5696 88.0768 97.243 86.2292 95.3336C86.1496 93.4843 86.0675 91.6352 85.9879 89.7859C85.7009 87.6368 84.8567 85.7474 83.4553 84.1176C82.2493 83.5146 81.0432 82.9116 79.8372 82.3085C79.5767 82.0275 79.3741 81.706 79.2342 81.3437C78.6143 78.3598 78.8941 75.4653 80.0784 72.6603C82.4446 72.512 84.7747 72.1502 87.0734 71.5749C89.2563 70.7577 90.9037 69.3505 92.0181 67.3538C92.7369 64.3663 91.69 62.1954 88.8824 60.8413C87.4279 58.8118 86.9455 56.5604 87.4352 54.0875C87.7415 53.3405 88.1853 52.6972 88.7618 52.1579Z" fill="#8C90A4"/>
<path fill-rule="evenodd" clip-rule="evenodd" d="M37.8676 57.4645C37.5145 60.3466 37.3536 63.2411 37.3852 66.1479C37.0188 63.229 37.1797 60.3346 37.8676 57.4645Z" fill="#805934"/>
<path fill-rule="evenodd" clip-rule="evenodd" d="M99.3749 71.2132C100.323 71.1039 101.085 71.4254 101.666 72.178C103.685 75.4232 104.891 78.9609 105.284 82.791C105.446 85.0422 105.446 87.2936 105.284 89.5448C105.265 90.7127 104.742 91.5166 103.717 91.9568C103.155 91.8765 102.831 91.5547 102.752 90.992C104.187 84.883 103.343 79.0941 100.219 73.6252C99.1988 73.0557 98.9166 72.2516 99.3749 71.2132Z" fill="#FBFBFC"/>
<path fill-rule="evenodd" clip-rule="evenodd" d="M25.5662 73.6252C26.7449 73.9576 27.951 74.1585 29.1842 74.2283C29.5998 75.0503 29.3586 75.613 28.4606 75.9167C28.0585 76.0776 27.6567 76.0776 27.2546 75.9167C26.543 75.2551 25.9801 74.4912 25.5662 73.6252Z" fill="#929292"/>
<path fill-rule="evenodd" clip-rule="evenodd" d="M69.2242 77.7257C69.9599 78.9047 70.8451 79.9901 71.8775 80.982C75.2736 82.4627 78.6505 83.9905 82.0081 85.5649C84.0366 88.3375 84.7216 91.4329 84.0583 94.8513C83.3974 99.0258 81.5088 102.523 78.39 105.344C72.9943 108.45 69.3376 107.043 67.4152 101.123C67.133 99.0444 66.9714 96.9539 66.9328 94.8513C66.7326 94.6503 66.53 94.4492 66.3298 94.2483C63.5414 93.7118 60.8062 93.0282 58.1288 92.198C62.4849 87.8457 66.185 83.0216 69.2242 77.7257Z" fill="#D39356"/>
<path fill-rule="evenodd" clip-rule="evenodd" d="M28.2194 84.4794C27.0044 84.4584 25.7984 84.5387 24.6013 84.7206C25.2492 84.361 25.9728 84.2003 26.7722 84.2382C27.3019 84.2394 27.7843 84.3197 28.2194 84.4794Z" fill="#92663B"/>
<path fill-rule="evenodd" clip-rule="evenodd" d="M101.063 93.1629C102.072 93.0041 102.433 93.406 102.149 94.3689C101.833 94.8894 101.43 94.9697 100.943 94.6101C100.779 94.104 100.82 93.6216 101.063 93.1629Z" fill="#F5F5F7"/>
</svg>

<svg width="111" height="110" fill="none" xmlns="http://www.w3.org/2000/svg"><path opacity=".903" fill-rule="evenodd" clip-rule="evenodd" d="M38.109.058c3.556-.374 6.009 1.073 7.356 4.341.193.819.434 1.623.724 2.412C50.04 4.65 54.1 4.126 58.37 5.244c.716.184 1.32.545 1.809 1.085 1.541-3.002 3.994-4.167 7.357-3.498 2.39.702 3.876 2.27 4.462 4.704.917 3.872-.33 6.767-3.739 8.683a303.4 303.4 0 0 1 2.533 7.96c2.277 3.131 2.921 6.588 1.93 10.372a56.864 56.864 0 0 1-2.412 5.065c4.896 5.703 9.802 11.411 14.713 17.126.017-1.567.258-3.094.724-4.583 1.14-1.856 2.788-2.539 4.945-2.05 2.043.757 3.451 2.164 4.22 4.22 1.78-2.459 4.072-3.062 6.875-1.808 1.809 2.586 1.889 5.24.241 7.96 3.457.155 4.783 1.883 3.98 5.185a7.095 7.095 0 0 1-1.568 2.171c5.972 7.776 7.381 16.299 4.221 25.568-2.957 6.445-7.981 9.218-15.075 8.322-2.914-.452-5.485-1.618-7.719-3.498a149.414 149.414 0 0 0-2.291 4.824c-2.723 4.518-6.703 6.488-11.94 5.91-2.248-.661-3.977-1.988-5.186-3.98a16.984 16.984 0 0 1-1.568-8.925 571.53 571.53 0 0 1-8.08-1.688 115.382 115.382 0 0 1-16.522 12.663l-3.377 1.689c-.634.24-1.277.32-1.93.241-7.425-2.36-12.61-7.144-15.558-14.352-2.216-9.924 1.683-13.904 11.699-11.94l2.774 1.086 3.738-4.583a28.424 28.424 0 0 1-1.809-6.513 10.254 10.254 0 0 1-4.22 1.448c.247 2.647-.96 4.013-3.619 4.1a6.958 6.958 0 0 1-2.653-.603A2466.633 2466.633 0 0 0 .6 43.957c-.84-.977-.8-1.902.121-2.774l2.894-1.93c.882-.516 1.726-.475 2.533.121 1.676 2.4 3.445 4.732 5.307 6.995a58.704 58.704 0 0 0-2.654-6.754 4.916 4.916 0 0 1-.482-2.412c.09-.22.21-.422.362-.603a63.399 63.399 0 0 1 4.824-2.05c.347.053.668.173.965.362 3.883 8.45 7.863 16.851 11.94 25.206a3.393 3.393 0 0 1 1.808-.483c.387-5.907 2.638-10.972 6.754-15.196-5.772-3.606-7.661-8.672-5.668-15.195 1.23-2.8 3.12-5.05 5.668-6.754a19.638 19.638 0 0 1 1.688-7.116c-2.21-.926-3.537-2.574-3.98-4.944-.539-2.713-.137-5.286 1.207-7.72 1.144-1.353 2.551-2.237 4.22-2.652Zm34.733 68.02c.996.875 1.961 1.8 2.895 2.773l2.17 1.086a22.908 22.908 0 0 0-1.085 8.924c-2.81-.56-4.74-2.168-5.789-4.824a1.02 1.02 0 0 1 0-.965 16.472 16.472 0 0 0 1.81-6.995Z" fill="#040202"/><path fill-rule="evenodd" clip-rule="evenodd" d="M46.792 45.404a12.392 12.392 0 0 0-3.618-.482c-4.843-.71-8.662-3.042-11.457-6.995-1.735-3.709-1.333-7.166 1.206-10.372l2.774-2.774a5.13 5.13 0 0 1 2.17-.844l.242-.603c-1.11-2.61-.788-5.063.965-7.357l1.447-.603c.68-.655.6-1.218-.241-1.688-3.724-.106-5.574-2.036-5.548-5.79-.076-2.336.89-4.105 2.894-5.306 3.201-.709 5.252.537 6.151 3.739-.493 3.86.753 4.625 3.739 2.291 3.602-2.064 7.301-2.305 11.095-.723a3.812 3.812 0 0 1 1.568 2.291c.562.322 1.126.322 1.688 0-.154-3.696 1.573-5.425 5.186-5.186 2.55 1.287 3.474 3.337 2.774 6.151-.547 1.593-1.633 2.598-3.256 3.015-.504.303-.745.745-.724 1.327a462.258 462.258 0 0 0 3.015 9.89c2.564 3.567 2.726 7.266.483 11.095-2.86 3.66-6.518 6.192-10.975 7.598a30.938 30.938 0 0 1-11.578 1.326Z" fill="#D39356"/><path fill-rule="evenodd" clip-rule="evenodd" d="M38.35 6.329c.825-.09 1.428.232 1.809.965.388.789.87 1.513 1.447 2.17.362 1.247-.08 1.689-1.327 1.327a61 61 0 0 1-2.05-3.015 1.792 1.792 0 0 1 .12-1.447Z" fill="#0E0905"/><path fill-rule="evenodd" clip-rule="evenodd" d="M66.088 7.294c1.086-.081 1.527.401 1.327 1.447a91.458 91.458 0 0 1-2.774 3.498c-1.085.2-1.527-.242-1.326-1.327a65.336 65.336 0 0 1 2.773-3.618Z" fill="#0F0A05"/><path fill-rule="evenodd" clip-rule="evenodd" d="M53.787 22.972c2.024-.033 2.424.73 1.206 2.292-1.288.238-1.89-.285-1.809-1.568a2.73 2.73 0 0 1 .603-.724Z" fill="#0C0804"/><path fill-rule="evenodd" clip-rule="evenodd" d="M43.657 23.213c1.531-.235 2.134.409 1.809 1.93-.804.965-1.609.965-2.413 0-.236-.79-.035-1.433.604-1.93Z" fill="#100A05"/><path fill-rule="evenodd" clip-rule="evenodd" d="M48.24 27.555c.984-.11 1.909.05 2.773.482.292.91.05 1.633-.723 2.171a27.425 27.425 0 0 1-.362 3.498c-.468.179-.91.139-1.327-.12a20.889 20.889 0 0 0-.362-3.137c-1.104-.342-1.465-1.066-1.085-2.17.398-.217.76-.459 1.085-.724Z" fill="#070402"/><path fill-rule="evenodd" clip-rule="evenodd" d="M12.541 37.203a.69.69 0 0 1 .603.241L23.998 60.6c.161.322.161.643 0 .965l-2.17 2.17L10.851 38.41c.528-.463 1.09-.865 1.689-1.206Z" fill="#9E9E9E"/><path fill-rule="evenodd" clip-rule="evenodd" d="M24.601 84.72a21.571 21.571 0 0 1 3.618-.24c1.769.239 3.457.762 5.066 1.567a2.48 2.48 0 0 0 1.93-.241A950.614 950.614 0 0 1 44.5 74.831c.361-1.246-.08-1.688-1.327-1.326l-3.739 4.22a39.206 39.206 0 0 1-2.05-11.577c-.032-2.907.13-5.801.483-8.684.17-1.679.613-3.286 1.326-4.824.27-1.801-.294-2.123-1.688-.965a27.548 27.548 0 0 0-2.171 9.408 211.742 211.742 0 0 0 0 8.924c-3.078 2.341-6.415 2.783-10.01 1.327-3.222-2.288-3.463-4.861-.724-7.719a10.243 10.243 0 0 1 5.066-2.17c.2-.202.402-.403.603-.604.154-6.102 2.526-11.127 7.115-15.075 2.925.681 5.9 1.244 8.925 1.688 8.07.466 15.348-1.664 21.829-6.392.468.227.87.549 1.206.965l15.678 18.09c.234.457.396.94.483 1.448a20.89 20.89 0 0 0 3.256 1.568c1.845 1.58 1.927 3.268.241 5.065-3.025 2.039-6.322 2.602-9.89 1.689a7.49 7.49 0 0 1-1.929-.965L66.571 58.309c-1.293-.698-1.896-.336-1.81 1.085l5.549 5.548c.55 2.203.468 4.373-.242 6.512a55.762 55.762 0 0 1-8.924 14.473c-7.09 8.621-15.532 15.536-25.327 20.743-6.9-2.156-11.724-6.578-14.472-13.266-.999-2.553-.758-4.965.724-7.236A4.84 4.84 0 0 1 24.6 84.72Z" fill="#D39456"/><path fill-rule="evenodd" clip-rule="evenodd" d="M4.34 41.545c.366.003.648.163.844.482a528.26 528.26 0 0 0 11.578 15.196c1.224 2.85 2.51 5.665 3.86 8.442.16.483.16.965 0 1.448L3.012 43.233a.603.603 0 0 1 0-.723c.487-.289.929-.61 1.327-.965Z" fill="#9D9D9D"/><path fill-rule="evenodd" clip-rule="evenodd" d="M43.174 44.922a12.395 12.395 0 0 1 3.618.482 10.421 10.421 0 0 1-3.618-.482Z" fill="#A07041"/><path fill-rule="evenodd" clip-rule="evenodd" d="M88.762 52.158c1.423-.112 2.508.45 3.256 1.688 1.069 1.6 1.551 3.369 1.447 5.307.304.898.866 1.14 1.689.724.234-2.034 1.078-3.762 2.532-5.186 1.983-1.14 3.028-.578 3.136 1.688-.099 2.489-1.264 4.297-3.497 5.427-.258.867.062 1.35.964 1.447a11.103 11.103 0 0 1 4.704-.361c1.114.38 1.396 1.063.844 2.05-2.752 3.074-5.97 3.717-9.648 1.93-.794.153-1.035.636-.724 1.447 1.02 1.153 2.306 1.716 3.86 1.688a45.31 45.31 0 0 0 4.944-.844c6.149 7.189 7.475 15.189 3.98 24-2.974 5.286-7.436 7.337-13.387 6.15-2.576-.743-4.785-2.07-6.633-3.98-.08-1.849-.162-3.698-.241-5.547-.287-2.15-1.131-4.039-2.533-5.668l-3.618-1.81a2.996 2.996 0 0 1-.603-.964c-.62-2.984-.34-5.879.844-8.684a38.718 38.718 0 0 0 6.995-1.085c2.183-.817 3.83-2.225 4.945-4.221.719-2.988-.328-5.159-3.136-6.513-1.454-2.03-1.937-4.28-1.447-6.754.306-.747.75-1.39 1.327-1.93Z" fill="#8C90A4"/><path fill-rule="evenodd" clip-rule="evenodd" d="M37.868 57.465a65.475 65.475 0 0 0-.483 8.683 24.086 24.086 0 0 1 .483-8.683Z" fill="#805934"/><path fill-rule="evenodd" clip-rule="evenodd" d="M99.375 71.213c.948-.11 1.71.212 2.291.965 2.019 3.245 3.225 6.783 3.618 10.613a46.989 46.989 0 0 1 0 6.754c-.019 1.168-.542 1.972-1.567 2.412-.562-.08-.886-.402-.965-.965 1.435-6.109.591-11.898-2.533-17.367-1.02-.57-1.302-1.373-.844-2.412Z" fill="#FBFBFC"/><path fill-rule="evenodd" clip-rule="evenodd" d="M25.566 73.625c1.179.333 2.385.534 3.618.603.416.822.175 1.385-.723 1.689-.402.16-.804.16-1.206 0a7.55 7.55 0 0 1-1.689-2.292Z" fill="#929292"/><path fill-rule="evenodd" clip-rule="evenodd" d="M69.224 77.726a16.955 16.955 0 0 0 2.653 3.256 407.081 407.081 0 0 1 10.131 4.583c2.029 2.773 2.714 5.868 2.05 9.286-.66 4.175-2.55 7.672-5.668 10.493-5.396 3.106-9.052 1.699-10.975-4.221a53.94 53.94 0 0 1-.482-6.272l-.603-.603a76.44 76.44 0 0 1-8.201-2.05 68.763 68.763 0 0 0 11.095-14.472Z" fill="#D39356"/><path fill-rule="evenodd" clip-rule="evenodd" d="M28.22 84.48a21.561 21.561 0 0 0-3.619.24c.648-.359 1.372-.52 2.171-.482.53.001 1.012.082 1.447.241Z" fill="#92663B"/><path fill-rule="evenodd" clip-rule="evenodd" d="M101.063 93.163c1.009-.159 1.37.243 1.086 1.206-.316.52-.719.6-1.206.241a1.793 1.793 0 0 1 .12-1.447Z" fill="#F5F5F7"/></svg>
